X: 59
T:Shetland Polka
% Nottingham Music Database
S:Tommy Anderson
M:4/4
L:1/8
R:Hornpipe
K:G
P:A
(3DEF|"G"G2F2 E2D2|"D7"ABcA "G"dBG2|"C"e2d2 "Am"c2B2|"A7"ABAG "D7"FAd2|
"G"G2F2 E2D2|"D7"ABcA "G"dBG2|"C"e/2g3/2g2 "G"d/2g3/2g2|"Am"G2"D7"F2 "G"G2||
P:B
(3def|"G"g2f2 "C"ef(3gfe|"G"d2B2 "D7"AB(3cBA|"G"G2G2 "Em"GABA|\
"A7"G2A2 "D7"A2(3def|
"G"g2f2 "C"ef(3gfe|"G"d2B2 "D7"AB(3cBA|"G"G2G2 "Em"GABA|"D7"G2F2 "G"G2||<end>
<start>
